contents/images/experimentation.svg

<svg height="72" viewBox="0 0 72 72" width="72" xmlns="http://www.w3.org/2000/svg"><g fill="none" fill-rule="evenodd"><rect fill="#79e2f2" height="72" rx="36" width="72"/><g transform="translate(18 13)"><path d="m13 8v14.6748l-11.18848 15.38477c-1.1123 1.52832-1.26953 3.52441-.41211 5.20898s2.56543 2.73145 4.45606 2.73145h24.28906c1.89062 0 3.59863-1.04688 4.45605-2.73145s.7002-3.68066-.41211-5.20898l-11.18847-15.38477v-14.6748z" fill="#e6fcff"/><path d="m26.125 8c.55273 0 1-.44727 1-1v-6c0-.55273-.44727-1-1-1h-16.125c-.55273 0-1 .44727-1 1v6c0 .55273.44727 1 1 1h3 10z" fill="#e6fcff"/><path d="m24.10834 31h-12.2168l-6.84564 9.41309c-.22559.30957-.25586.69922-.08203 1.04102.1748.341788.50781.54589.8916.54589h24.28906c.38379 0 .7168-.2041.8916-.5459.17383-.3418.14355-.73145-.08301-1.04199z" fill="#998dd9"/><path d="m13 8h10v3h-10z" fill="#b3f5ff"/><g fill="#eae7ff"><path d="m15.41421 36.58579c.78105.781045.78105 2.047375 0 2.828424-.78105.781048-2.04737.781048-2.82842 0-.78105-.781049-.78105-2.047379 0-2.828424.78105-.78105 2.04737-.78105 2.82842 0" opacity=".6"/><path d="m22.41421 34.58579c.78105.78105.78105 2.04737 0 2.828424-.78105.781048-2.04737.781048-2.82842 0-.78105-.781054-.78105-2.047374 0-2.828424s2.04737-.78105 2.82842 0" opacity=".6"/></g></g></g></svg>

<?xml version="1.0" encoding="UTF-8"?>
<svg width="72px" height="72px" viewBox="0 0 72 72" version="1.1" xmlns="http://www.w3.org/2000/svg" xmlns:xlink="http://www.w3.org/1999/xlink">
    <!-- Generator: Sketch 47.1 (45422) - http://www.bohemiancoding.com/sketch -->
    <title>experimentation</title>
    <desc>Created with Sketch.</desc>
    <defs></defs>
    <g id="Symbols" stroke="none" stroke-width="1" fill="none" fill-rule="evenodd">
        <g id="experimentation">
            <rect id="Rectangle-3" fill="#79E2F2" x="0" y="0" width="72" height="72" rx="36"></rect>
            <g id="Page-1" transform="translate(18.000000, 13.000000)">
                <path d="M13,8 L13,22.6748 L1.81152,38.05957 C0.69922,39.58789 0.54199,41.58398 1.39941,43.26855 C2.25683,44.95312 3.96484,46 5.85547,46 L30.14453,46 C32.03515,46 33.74316,44.95312 34.60058,43.26855 C35.458,41.58398 35.30078,39.58789 34.18847,38.05957 L23,22.6748 L23,8 L13,8 Z" id="Fill-1" fill="#E6FCFF"></path>
                <path d="M26.125,8 C26.67773,8 27.125,7.55273 27.125,7 L27.125,1 C27.125,0.44727 26.67773,0 26.125,0 L10,0 C9.44727,0 9,0.44727 9,1 L9,7 C9,7.55273 9.44727,8 10,8 L13,8 L23,8 L26.125,8 Z" id="Fill-3" fill="#E6FCFF"></path>
                <path d="M24.10834,31 L11.89154,31 L5.0459,40.41309 C4.82031,40.72266 4.79004,41.11231 4.96387,41.45411 C5.13867,41.795898 5.47168,42 5.85547,42 L30.14453,42 C30.52832,42 30.86133,41.7959 31.03613,41.4541 C31.20996,41.1123 31.17968,40.72265 30.95312,40.41211 L24.10834,31 Z" id="Fill-4" fill="#998DD9"></path>
                <polygon id="Fill-5" fill="#B3F5FF" style="mix-blend-mode: multiply;" points="13 8 23 8 23 11 13 11"></polygon>
                <path d="M15.41421,36.58579 C16.19526,37.366835 16.19526,38.633165 15.41421,39.414214 C14.63316,40.195262 13.36684,40.195262 12.58579,39.414214 C11.80474,38.633165 11.80474,37.366835 12.58579,36.58579 C13.36684,35.80474 14.63316,35.80474 15.41421,36.58579" id="Fill-6" fill="#EAE7FF" opacity="0.600000024"></path>
                <path d="M22.41421,34.58579 C23.19526,35.36684 23.19526,36.63316 22.41421,37.414214 C21.63316,38.195262 20.36684,38.195262 19.58579,37.414214 C18.80474,36.63316 18.80474,35.36684 19.58579,34.58579 C20.36684,33.80474 21.63316,33.80474 22.41421,34.58579" id="Fill-7" fill="#EAE7FF" opacity="0.600000024"></path>
            </g>
        </g>
    </g>
</svg>
